X:54
T: MIT LUST THAET ICH AUSREITEN
N: Z0055
O: Europa, Mitteleuropa, Deutschland
R: Sagen - Lied, Romanze
M: 4/4
L: 1/8
K: G
G2 | GGGGA2A2 | d2dAdc2_B | A4z2
d2 | ddddcA2_B | G2Ac_B2AG | A2G2z2
d2 | =f2d_Bc2A2 | G
dddd2dd | G2Ac_B2AG | A2G2z2
d2 | =f2d2_B2cA | G4z2

